app/img/contact/t.svg

<svg width="517" height="217" viewBox="0 0 517 217" fill="none" xmlns="http://www.w3.org/2000/svg">
    <path opacity="0.81" fill-rule="evenodd" clip-rule="evenodd"
          d="M0.332031 0C21.6676 123.257 129.127 217 258.482 217C387.837 217 495.297 123.257 516.632 0H515.102C493.784 122.42 387.002 215.493 258.482 215.493C129.962 215.493 23.1804 122.42 1.86202 0H0.332031ZM10.401 0C31.6198 117.752 134.619 207.086 258.482 207.086C382.346 207.086 485.345 117.752 506.563 0H504.886C483.687 116.836 381.432 205.435 258.482 205.435C135.533 205.435 33.2773 116.836 12.0788 0H10.401ZM20.4724 0C41.5647 112.252 140.105 197.183 258.482 197.183C376.859 197.183 475.4 112.252 496.492 0H494.68C473.612 111.263 375.873 195.403 258.482 195.403C141.091 195.403 43.3525 111.263 22.284 0H20.4724ZM30.5769 0C51.5322 106.738 145.604 187.262 258.482 187.262C371.361 187.262 465.433 106.738 486.388 0H484.442C463.514 105.677 370.303 185.353 258.482 185.353C146.662 185.353 53.4506 105.677 32.5231 0H30.5769ZM40.68 0C61.4858 101.232 151.094 177.359 258.482 177.359C365.871 177.359 455.479 101.232 476.284 0H474.203C453.429 100.098 364.74 175.32 258.482 175.32C152.224 175.32 63.5352 100.098 42.7617 0H40.68ZM50.8133 0C71.4559 95.716 156.593 167.445 258.482 167.445C360.372 167.445 445.509 95.716 466.151 0H463.918C443.314 94.5017 359.161 165.263 258.482 165.263C157.803 165.263 73.6509 94.5017 53.0463 0H50.8133ZM60.9764 0C81.4397 90.1923 162.098 157.523 258.482 157.523C354.866 157.523 435.525 90.1923 455.988 0H453.617C433.198 88.905 353.583 155.212 258.482 155.212C163.381 155.212 83.7663 88.905 63.3473 0H60.9764ZM71.1474 0C91.4128 84.6744 167.597 147.62 258.482 147.62C349.368 147.62 425.552 84.6744 445.817 0H443.306C423.093 83.314 348.012 145.18 258.482 145.18C168.952 145.18 93.8715 83.314 73.658 0H71.1474ZM81.3673 0C101.413 79.1413 173.109 137.699 258.482 137.699C343.855 137.699 415.552 79.1413 435.597 0H432.945C412.96 77.7074 342.427 135.129 258.482 135.129C174.538 135.129 104.005 77.7074 84.0198 0H81.3673ZM91.5975 0C111.399 73.6164 178.613 127.803 258.482 127.803C338.352 127.803 405.566 73.6164 425.367 0H422.555C402.826 72.1006 336.842 125.09 258.482 125.09C180.122 125.09 114.138 72.1006 94.4092 0H91.5975ZM101.897 0C121.423 68.0701 184.136 117.881 258.482 117.881C332.829 117.881 395.541 68.0701 415.068 0H412.108C392.667 66.4799 331.245 115.039 258.482 115.039C185.719 115.039 124.298 66.4799 104.857 0H101.897ZM112.249 0C131.464 62.5157 189.666 107.96 258.482 107.96C327.298 107.96 385.501 62.5157 404.716 0H401.603C382.49 60.8503 325.641 104.989 258.482 104.989C191.324 104.989 134.475 60.8503 115.361 0H112.249ZM122.366 0C140.844 54.4926 191.355 94.6643 252.285 97.1015C317.241 99.6997 373.817 58.6042 393.647 0H390.351C370.65 56.7947 315.581 96.5135 252.41 93.9866C193.179 91.6174 144.015 52.7966 125.663 0H122.366ZM133.136 0C151.587 51.3886 200.743 88.1427 258.482 88.1427C316.222 88.1427 365.377 51.3886 383.828 0H380.375C362.071 49.5621 314.403 84.8987 258.482 84.8987C202.561 84.8987 154.893 49.5621 136.589 0H133.136ZM143.717 0C161.692 45.8074 206.299 78.24 258.482 78.24C310.665 78.24 355.273 45.8074 373.248 0H369.615C351.821 43.9021 308.768 74.8668 258.482 74.8668C208.197 74.8668 165.143 43.9021 147.349 0H143.717ZM154.451 0C171.862 40.1967 211.888 68.3185 258.482 68.3185C305.077 68.3185 345.103 40.1967 362.514 0H358.685C341.498 38.2106 303.097 64.816 258.482 64.816C213.867 64.816 175.467 38.2106 158.28 0H154.451ZM165.357 0C182.091 34.5659 217.503 58.4041 258.482 58.4041C299.462 58.4041 334.874 34.5659 351.608 0H347.538C331.09 32.4878 297.387 54.7581 258.482 54.7581C219.578 54.7581 185.875 32.4878 169.426 0H165.357ZM176.502 0C192.405 28.9102 223.156 48.5014 258.482 48.5014C293.809 48.5014 324.559 28.9102 340.462 0H336.125C320.592 26.7437 291.637 44.7262 258.482 44.7262C225.327 44.7262 196.373 26.7437 180.84 0H176.502ZM188.038 0C202.89 23.2012 228.89 38.5798 258.482 38.5798C288.074 38.5798 314.074 23.2012 328.926 0H324.242C309.886 20.9393 285.788 34.6755 258.482 34.6755C231.176 34.6755 207.079 20.9393 192.722 0H188.038ZM200.141 0C213.614 17.443 234.736 28.6768 258.482 28.6768C282.228 28.6768 303.35 17.443 316.824 0H311.636C298.862 15.0746 279.789 24.6433 258.482 24.6433C237.175 24.6433 218.103 15.0746 205.328 0H200.141ZM213.309 0C224.854 11.5899 240.831 18.7628 258.482 18.7628C276.134 18.7628 292.111 11.5899 303.656 0H297.541C287.082 9.08579 273.424 14.5857 258.482 14.5857C243.54 14.5857 229.883 9.08579 219.424 0H213.309ZM228.934 0C234.009 3.33011 239.737 5.85217 245.982 7.34217C260.991 10.9235 276.033 7.83872 287.995 0H279.125C269.411 4.4626 258.186 5.82706 246.981 3.15351C243.769 2.38712 240.706 1.32394 237.813 0H228.934Z"
          fill="#80FF9F" fill-opacity="0.5"/>
</svg>

<svg width="517" height="217" fill="none" xmlns="http://www.w3.org/2000/svg"><path opacity=".81" fill-rule="evenodd" clip-rule="evenodd" d="M.332 0c21.336 123.257 128.795 217 258.15 217s236.815-93.743 258.15-217h-1.53c-21.318 122.42-128.1 215.493-256.62 215.493S23.18 122.42 1.862 0H.332Zm10.069 0C31.62 117.752 134.619 207.086 258.482 207.086c123.864 0 226.863-89.334 248.081-207.086h-1.677c-21.199 116.836-123.454 205.435-246.404 205.435C135.533 205.435 33.277 116.836 12.079 0H10.4Zm10.071 0c21.093 112.252 119.633 197.183 238.01 197.183S475.4 112.252 496.492 0h-1.812c-21.068 111.263-118.807 195.403-236.198 195.403S43.352 111.263 22.284 0h-1.812Zm10.105 0c20.955 106.738 115.027 187.262 227.905 187.262 112.879 0 206.951-80.524 227.906-187.262h-1.946c-20.928 105.677-114.139 185.353-225.96 185.353-111.82 0-205.031-79.676-225.959-185.353h-1.946ZM40.68 0c20.806 101.232 110.414 177.359 217.802 177.359 107.389 0 196.997-76.127 217.802-177.359h-2.081C453.429 100.098 364.74 175.32 258.482 175.32 152.224 175.32 63.535 100.098 42.762 0H40.68Zm10.133 0c20.643 95.716 105.78 167.445 207.669 167.445 101.89 0 187.027-71.729 207.669-167.445h-2.233c-20.604 94.502-104.757 165.263-205.436 165.263S73.651 94.502 53.046 0h-2.233Zm10.163 0C81.44 90.192 162.098 157.523 258.482 157.523S435.525 90.193 455.988 0h-2.371c-20.419 88.905-100.034 155.212-195.135 155.212C163.381 155.212 83.766 88.905 63.347 0h-2.37Zm10.171 0c20.266 84.674 96.45 147.62 187.335 147.62 90.886 0 167.07-62.946 187.335-147.62h-2.511c-20.213 83.314-95.294 145.18-184.824 145.18-89.53 0-164.61-61.866-184.824-145.18h-2.51Zm10.22 0c20.046 79.141 91.742 137.699 177.115 137.699S415.552 79.141 435.597 0h-2.652c-19.985 77.707-90.518 135.129-174.463 135.129C174.538 135.129 104.005 77.707 84.02 0h-2.653Zm10.23 0c19.802 73.616 87.016 127.803 166.885 127.803 79.87 0 147.084-54.187 166.885-127.803h-2.812c-19.729 72.1-85.713 125.09-164.073 125.09-78.36 0-144.344-52.99-164.073-125.09h-2.812Zm10.3 0c19.526 68.07 82.239 117.881 156.585 117.881 74.347 0 137.059-49.81 156.586-117.881h-2.96c-19.441 66.48-80.863 115.039-153.626 115.039S124.298 66.479 104.857 0h-2.96Zm10.352 0c19.215 62.516 77.417 107.96 146.233 107.96S385.501 62.516 404.716 0h-3.113c-19.113 60.85-75.962 104.989-143.121 104.989-67.158 0-124.007-44.139-143.121-104.989h-3.112Zm10.117 0c18.478 54.493 68.989 94.664 129.919 97.102C317.241 99.7 373.817 58.604 393.647 0h-3.296c-19.701 56.795-74.77 96.513-137.941 93.987C193.179 91.617 144.015 52.797 125.663 0h-3.297Zm10.77 0c18.451 51.389 67.607 88.143 125.346 88.143 57.74 0 106.895-36.754 125.346-88.143h-3.453c-18.304 49.562-65.972 84.899-121.893 84.899-55.921 0-103.589-35.337-121.893-84.899h-3.453Zm10.581 0c17.975 45.807 62.582 78.24 114.765 78.24S355.273 45.807 373.248 0h-3.633c-17.794 43.902-60.847 74.867-111.133 74.867-50.285 0-93.339-30.965-111.133-74.867h-3.632Zm10.734 0c17.411 40.197 57.437 68.319 104.031 68.319 46.595 0 86.621-28.122 104.032-68.319h-3.829c-17.187 38.21-55.588 64.816-100.203 64.816S175.467 38.211 158.28 0h-3.829Zm10.906 0c16.734 34.566 52.146 58.404 93.125 58.404 40.98 0 76.392-23.838 93.126-58.404h-4.07c-16.448 32.488-50.151 54.758-89.056 54.758-38.904 0-72.607-22.27-89.056-54.758h-4.069Zm11.145 0c15.903 28.91 46.654 48.501 81.98 48.501 35.327 0 66.077-19.59 81.98-48.501h-4.337c-15.533 26.744-44.488 44.726-77.643 44.726S196.373 26.744 180.84 0h-4.338Zm11.536 0c14.852 23.201 40.852 38.58 70.444 38.58 29.592 0 55.592-15.379 70.444-38.58h-4.684c-14.356 20.94-38.454 34.675-65.76 34.675-27.306 0-51.403-13.736-65.76-34.675h-4.684Zm12.103 0c13.473 17.443 34.595 28.677 58.341 28.677 23.746 0 44.868-11.234 58.342-28.677h-5.188c-12.774 15.075-31.847 24.643-53.154 24.643-21.307 0-40.379-9.568-53.154-24.643h-5.187Zm13.168 0c11.545 11.59 27.522 18.763 45.173 18.763 17.652 0 33.629-7.173 45.174-18.763h-6.115c-10.459 9.086-24.117 14.586-39.059 14.586-14.942 0-28.599-5.5-39.058-14.586h-6.115Zm15.625 0a53.74 53.74 0 0 0 17.048 7.342c15.009 3.582 30.051.497 42.013-7.342h-8.87a49.322 49.322 0 0 1-32.144 3.154A49.77 49.77 0 0 1 237.813 0h-8.879Z" fill="#80FF9F" fill-opacity=".5"/></svg>
